polaris-icons/icons/newicons/TimelineAttachmentMajor.svg

<svg width="20" height="20" viewBox="0 0 20 20" fill="none" xmlns="http://www.w3.org/2000/svg">
<path fill-rule="evenodd" clip-rule="evenodd" d="M6.75 3.5C6.05964 3.5 5.5 4.05964 5.5 4.75V15.25C5.5 15.9404 6.05964 16.5 6.75 16.5H13.25C13.9404 16.5 14.5 15.9404 14.5 15.25V5.75C14.5 5.33579 14.8358 5 15.25 5C15.6642 5 16 5.33579 16 5.75V15.25C16 16.7688 14.7688 18 13.25 18H6.75C5.23122 18 4 16.7688 4 15.25V4.75C4 3.23122 5.23122 2 6.75 2H10.25C11.7688 2 13 3.23122 13 4.75V12C13 13.3807 11.8807 14.5 10.5 14.5C9.11929 14.5 8 13.3807 8 12V6.5C8 6.08579 8.33579 5.75 8.75 5.75C9.16421 5.75 9.5 6.08579 9.5 6.5V12C9.5 12.5523 9.94772 13 10.5 13C11.0523 13 11.5 12.5523 11.5 12V4.75C11.5 4.05964 10.9404 3.5 10.25 3.5H6.75Z" fill="black"/>
</svg>

<svg viewBox="0 0 20 20" fill="none" xmlns="http://www.w3.org/2000/svg"><path fill-rule="evenodd" clip-rule="evenodd" d="M6.75 3.5c-.69 0-1.25.56-1.25 1.25v10.5c0 .69.56 1.25 1.25 1.25h6.5c.69 0 1.25-.56 1.25-1.25v-9.5a.75.75 0 0 1 1.5 0v9.5a2.75 2.75 0 0 1-2.75 2.75h-6.5a2.75 2.75 0 0 1-2.75-2.75v-10.5a2.75 2.75 0 0 1 2.75-2.75h3.5a2.75 2.75 0 0 1 2.75 2.75v7.25a2.5 2.5 0 0 1-5 0v-5.5a.75.75 0 0 1 1.5 0v5.5a1 1 0 1 0 2 0v-7.25c0-.69-.56-1.25-1.25-1.25h-3.5Z" fill="#5C5F62"/></svg>
